public/theme/icons/phone-icon.svg

<svg width="68" height="68" viewBox="0 0 68 68" fill="none" xmlns="http://www.w3.org/2000/svg">
<circle cx="34" cy="34" r="34" fill="#0A66C2"/>
<path fill-rule="evenodd" clip-rule="evenodd" d="M50.6522 39.0089C52.5126 40.3681 52.8477 43.0117 51.3853 44.7921L49.2381 47.4062C49.2172 47.4316 49.1808 47.4379 49.1527 47.4209C49.1777 47.4363 49.1866 47.4662 49.1661 47.4874C48.6069 48.066 41.304 55.0775 27.2775 42.1967C13.2506 29.3157 19.5997 22.0142 20.127 21.4537C20.1468 21.4327 20.1763 21.4387 20.194 21.4614C20.1754 21.437 20.1775 21.4027 20.199 21.3808L22.5664 18.9588C24.1769 17.3112 26.8413 17.3563 28.395 19.0575L31.3124 22.2518C32.7015 23.7728 32.7124 26.0989 31.3374 27.6327L29.1093 30.1184C28.6499 30.6309 28.654 31.4091 29.1251 31.9108C30.4304 33.3007 31.759 34.6401 33.0203 35.7903C34.4282 37.0741 36.0819 38.407 37.7848 39.6929C38.3346 40.1081 39.1097 40.0278 39.5695 39.5148L41.8076 37.0181C43.1825 35.4843 45.4959 35.2416 47.1592 36.4568L50.6522 39.0089Z" fill="white"/>
</svg>

<svg xmlns="http://www.w3.org/2000/svg" width="68" height="68" fill="none">
    <circle cx="34" cy="34" r="34" fill="#0A66C2"/>
    <path fill="#fff" fill-rule="evenodd"
          d="M50.652 39.009a4.01 4.01 0 0 1 .733 5.783l-2.147 2.614a.066.066 0 0 1-.085.015c.025.015.034.045.013.066-.56.579-7.862 7.59-21.888-5.29C13.25 29.316 19.6 22.014 20.127 21.454c.02-.021.05-.015.067.007a.06.06 0 0 1 .005-.08l2.367-2.422a4.01 4.01 0 0 1 5.829.099l2.917 3.194a4.01 4.01 0 0 1 .025 5.38l-2.228 2.486c-.46.513-.455 1.291.016 1.793 1.305 1.39 2.634 2.73 3.895 3.88 1.408 1.283 3.062 2.616 4.765 3.902.55.415 1.325.335 1.785-.178l2.238-2.497a4.01 4.01 0 0 1 5.351-.561z"
          clip-rule="evenodd"/>
</svg>
